X: 4
T: The Burnt Old Man
R: jig
M: 6/8
L: 1/8
K: Gmaj
GBe dBG|BcB B2A|GBe dBG|ABA A2(G|G3) A3|BBB BAG|GBd g2a|bag (3efg e|dBG B2(A|A5) d|
g3 gab|e3 e2d|g3 gab|eee e2(d|d5) d|def gfe|dBd g2a|bag (3efg e|dBG A2 (G|G6)


Tune 1029	Setting 27842

